X: 5
T: The Laurel Tree
R: reel
M: 4/4
L: 1/8
K: Ador
eA A/A/A e2 dc|BAGA Bcdg|eA A/A/A (3ege dc|BAGB ABcd|eA A/A/A e2 dc|BAGA Bcdg|edef gbaf gedB ABcd:||eaag egdc|BAGA Bcdg|eaab (3aba ga|bagb abag|eaag egdc|BAGA Bcdg|edef gbaf|gedB ABcd:||


Tune 883	Setting 14067

